X:530
T: Streamstown
S: B.Breathnach:"Ceol Rince na hEireann" III/59 (gan ainm)
Z: B.Black
L: 1/8
M: 4/4
R: hornpipe
K: D
B|: d>FF>E|D>FA>F|d>GG>E B>EE>c|d>FF>E D>EF>G|A>BA>G F>D D2 :|
d>ef>d c>de>c|d>ef>d B>A A2|d>ef>d c>de>c|A>BA>G F>D D2 :|
